!!!COM: Felix Mendelssohn
!!!CNT: Deutsch
!!!TXO: Deutsch
!!!OTL: Hexenlied
!!!LYR: Ho2lty
!!!OPS: Op. 8
!!!ONM: No. 8
!!!ENC: Daniel Alt & Leigh VanHandel
!!!YOR: Sa2mmtliche Lieder fu2r eine Singstimme 
!!!YOR: Neu revidirt von Dr. L. Benda, Ausgabe fu2r mittlere Stimme
!!!YOR: Braunschweig. Henry Litolff's Verlag. Boston and New York: Arthur P. Schmidt.
!!!ODT: 1827/
!!NB: Date is publication date
**kern	**silbe
*staff1	*
=1-	=1
*clefG2	*
*k[f#]	*
*M6/8	*
2.r	.
=2	=2
2.r	.
=3	=3
2.r	.
=4	=4
2.r	.
=5	=5
2.r	.
=6	=6
2.r	.
=7	=7
2.r	.
=8	=8
4r	.
8r	.
4r	.
{8e	{Die
=9	=9
4e	Schwal-
8f#	-be
8g	fliegt,
8r	.
8e	der
=10	=10
4e	Fru2h-
8f#	-ling
8g	siegt
8r	.
8g	und
=11	=11
8a	spen-
8b	-det
8a	uns
8b	Blu-
8a	-men
8b	zum
=12	=12
4.dd	Kran-
8a}	-ze;}
8r	.
8r	.
=13	=13
{8a	{bald
8a	hu-
8b	-schen
8cc	wir
8r	.
8r	.
=14	=14
8a	leis’
8a	aus
8b	der
8cc	Thu2r
8r	.
8cc	und
=15	=15
8b	flie-
8cc	-gen
8b	zum
8cc	pra2cht-
8b	-i-
8cc	-gen
=16	=16
4ee	Tan-
8ee	|
8b}	-ze.}
8r	.
8r	.
=17	=17
{8b	{Ein
8b	schwar-
8b	-zer
4b	Bock,
8e	ein
=18	=18
4b	Be-
8b	-sen-
4b	-stock,
8e	die
=19	=19
4a	O-
8a	-fen-
8g	-ga-
8g	-bel,
8g	der
=20	=20
4.f#	Wo-
4d#}	-cken}
8r	.
=21	=21
{4.e	{reisst
4fn	uns
8f	ge-
=22	=22
4f#	-schwind,
8f#	wie
4g	Blitz
8g	und
=23	=23
4.g#	Wind,
4.a	durch
=24	=24
[4.a#	sau-
8a#]	-|
8a#	-sen-
8a#	-de
=25	=25
[4.b	Lu2f-
8b]	|
8g	-te
8e	zum
=26	=26
4.cc	Bro-
4.b}	-cken,}
=27	=27
{8e	{reisst
8e	uns
8e	ge-
4e	-schwind,
8e	wie
=28	=28
4e	Blitz
8e	und
4e	Wind,
8e	durch
=29	=29
[2.ee	sau-
=30	=30
8ee]	|
8ee	-sen-
8dd	-de
8cc	Lu2f-
8b	-te
8a	zum
=31	=31
2.b	Bro-
=32	=32
4e}	-cken.}
8r	.
4r	.
8r	.
=33	=33
2.r	.
=34	=34
2.r	.
=35	=35
2.r	.
=36	=36
2.r	.
=37	=37
4r	.
8r	.
4r	.
{8e	{Ein
=38	=38
4e	Feu-
8f#	-erd
8g	rach’
8r	.
8e	um-
=39	=39
8e	-flie-
8e	-get
8f#	das
8g	Dach
8r	.
8g	und
=40	=40
8a	bring-
8b	-et
8a	uns
8b	But-
8a	-ter
8b	und
=41	=41
4.dd	Ei-
8a}	-er.}
8r	.
{8a	{Die
=42	=42
8a	Nach-
8a	-barn
8b	dann
8cc	seh’n
8r	.
8a	die
=43	=43
4a	Fun-
8b	-ken
4cc	weh’n
8a	und
=44	=44
8b	schla-
8cc	-gen
8b	ein
8cc	Kreuz
8b	vor
8cc	dem
=45	=45
4.ee	Feu-
8b}	-er.}
8r	.
8r	.
=46	=46
4r	.
8r	.
4r	.
{8b	{Die
=47	=47
4g#	Schwal-
8g#	-be
4e	fliegt,
8e	der
=48	=48
4B	Fru2h-
8B	-ling
4e	siegt,
8e	die
=49	=49
8f#	Blu-
8f#	-men
8f#	er-
8f#	-blu2-
8f#	-hen
8f#	zum
=50	=50
[4.g#	Kran
4g#]	|
8b	|
=51	=51
4.b}	-ze.}
4r	.
8r	.
=52	=52
{8e	{Bald
8e	hus-
8e	-chen
4fn	wir
8f	leis’
=53	=53
4f#	aus
8f#	der
4g	Thu2r,
8r	.
=54	=54
8g#	bald
8g#	hus-
8g#	-chen
4a	wir
8a	leis’
=55	=55
4a#	aus
8a#	der
4b	Thu2r,
8b	juch-
=56	=56
[4.ee	-hei-
8ee]	|
8cc	-sa!
8a	zum
=57	=57
[4.ee	pra2ch-
8ee]	|
8b	-ti-
8g	-gen
=58	=58
4.cc	Tan-
4.b	|
=59	=59
8e}	-ze.}
8r	.
8r	.
{8e	Bald
8e	hus-
8e	-chen
=60	=60
4.e	wir
8e	leis’
8e	aus
8e	der
=61	=61
4.fn	Thu2r,
8f	bald
8f	hus-
8f	-chen
=62	=62
4.fn	wir
8f	leis’
8f	aus
8f	der
=63	=63
4.fn}	Thu2r,}
{4.g	{juch-
=64	=64
2.gg	-hei-
=65	=65
[2.ee	-sa!
=66	=66
8ee]	|
8ee	zum
8dd	|
8cc	pra2cht-
8b	-i-
8a	-gen
=67	=67
2.b	Tan-
=68	=68
4e}	-ze,}
8r	.
4r	.
{8b	{juch-
=69	=69
4.ee	-hei-
4b	-sa!
8b	juch-
=70	=70
4.ee	-hei-
4b	-sa!
8b	juch-
=71	=71
[2.ee	-hei-
=72	=72
8ee]	|
8ee	-sa!
8dd	zum
8cc	pra2cht-
8b	-i-
8a	-gen
=73	=73
2.b	Tan-
=74	=74
4e}	-ze.}
8r	.
4r	.
8r	.
==	==
*-	*-

